TCanvas/fit2_3.svg

<svg xmlns="http://www.w3.org/2000/svg" viewBox="0 0 1200 800" preserveAspectRatio="none" width="1200" height="800">
 <path d="M0,0H1200V800H0Z" style="fill: white;"></path>
 <g>
  <svg viewBox="0 0 1176 384" preserveAspectRatio="none" x="12" y="8" width="1176" height="384">
   <path d="M0,0H1176V384H0Z" style="fill: white;"></path>
   <g>
    <g transform="translate(118,38)">
     <path d="M0,0H941V307H0Z" style="fill: white; stroke: black; stroke-width: 1;"></path>
     <svg x="0" y="0" overflow="hidden" width="941" height="307" viewBox="0 0 941 307">
      <g>
       <path d="M78,160l3,14l8,15l29,26l43,22l52,17l56,12l60,9l62,5l63,1l68,-1l67,-6l64,-10l62,-14l56,-18l25,-11l22,-13l19,-13l14,-15l9,-15l3,-16l-3,-15l-8,-14l-29,-26l-42,-22l-52,-18l-57,-13l-60,-9l-62,-5l-63,-1l-68,2l-68,5l-65,10l-61,14l-56,19l-25,12l-21,12l-19,14l-14,14l-9,16l-3,16" style="stroke: black; stroke-width: 1; fill: none;"></path>
       <path d="M78,160h1m2,14h1m7,15h1m28,26h1m42,22h1m51,17h1m55,12h1m59,9h1m61,5h1m62,1h1m67,-1h1m66,-6h1m63,-10h1m61,-14h1m55,-18h1m24,-11h1m21,-13h1m18,-13h1m13,-15h1m8,-15h1m2,-16h1m-4,-15h1m-9,-14h1M823,94h1M781,72h1M729,54h1M672,41h1M612,32h1M550,27h1M487,26h1m-69,2h1m-69,5h1M286,43h1M225,57h1M169,76h1M144,88h1m-22,12h1m-20,14h1M90,128h1M81,144h1m-4,16h1" style="stroke: black; fill: none;"></path>
      </g>
     </svg>
     <g>
      <g transform="translate(0,307)">
       <path d="M0,0h941M17,-6v6m30,-6v6m30,-6v6m30,-6v6m30,-12v12m30,-6v6m30,-6v6m30,-6v6m30,-6v6m30,-12v12m30,-6v6m31,-6v6m30,-6v6m30,-6v6m30,-12v12m30,-6v6m30,-6v6m30,-6v6m30,-6v6m30,-12v12m30,-6v6m30,-6v6m30,-6v6m30,-6v6m30,-12v12m30,-6v6m31,-6v6m30,-6v6m30,-6v6m30,-12v12m30,-6v6" style="stroke: black; stroke-width: 1;"></path>
       <g font-family="Arial" font-size="13" space="preserve">
        <text fill="black" text-anchor="middle" dy=".8em" transform="translate(137,4)">
         5
        </text>
        <text fill="black" text-anchor="middle" dy=".8em" transform="translate(287,4)">
         10
        </text>
        <text fill="black" text-anchor="middle" dy=".8em" transform="translate(438,4)">
         15
        </text>
        <text fill="black" text-anchor="middle" dy=".8em" transform="translate(588,4)">
         20
        </text>
        <text fill="black" text-anchor="middle" dy=".8em" transform="translate(738,4)">
         25
        </text>
        <text fill="black" text-anchor="middle" dy=".8em" transform="translate(889,4)">
         30
        </text>
        <g transform="translate(946,-6)">
         <text fill="black" font-size="13">
          ×10
         </text>
         <text fill="black" font-size="8" transform="translate(21,-6)">
          -3
         </text>
        </g>
       </g>
      </g>
      <g>
       <path d="M0,0v307M18,298h-18m18,-14h-18m18,-13h-18m35,-14h-35m18,-13h-18m18,-14h-18m18,-13h-18m18,-14h-18m35,-13h-35m18,-14h-18m18,-13h-18m18,-14h-18m18,-13h-18m35,-14h-35m18,-13h-18m18,-14h-18m18,-13h-18m18,-14h-18m35,-14h-35m18,-13h-18m18,-14h-18m18,-13h-18m18,-14h-18" style="stroke: black; stroke-width: 1;"></path>
       <g font-family="Arial" font-size="13" space="preserve" fill="black" text-anchor="end">
        <text dy=".4em" transform="translate(-2,257)">
         0.980
        </text>
        <text dy=".4em" transform="translate(-2,190)">
         0.985
        </text>
        <text dy=".4em" transform="translate(-2,122)">
         0.990
        </text>
        <text dy=".4em" transform="translate(-2,54)">
         0.995
        </text>
       </g>
      </g>
     </g>
    </g>
    <g transform="translate(118,2)" font-family="Arial" font-size="19" space="preserve">
     <text fill="black" text-anchor="middle" dy=".8em" transform="translate(471)">
      Graph
     </text>
    </g>
   </g>
  </svg>
  <svg viewBox="0 0 1176 384" preserveAspectRatio="none" x="12" y="408" width="1176" height="384">
   <path d="M0,0H1176V384H0Z" style="fill: white;"></path>
   <g>
    <g transform="translate(118,38)">
     <path d="M0,0H941V307H0Z" style="fill: white; stroke: black; stroke-width: 1;"></path>
     <svg x="0" y="0" overflow="hidden" width="941" height="307" viewBox="0 0 941 307">
      <g>
       <path d="M78,78l3,10l2,8l5,8l10,11l9,9l10,8l9,7l10,6l19,11l20,11l19,9l19,8l19,8l19,8l20,6l19,7l19,6l19,6l20,5l19,6l19,4l19,5l19,5l39,7l19,3l19,5l39,5l38,5l39,3l38,3h39l42,-1l42,-4l21,-4l21,-6l21,-9l11,-8l5,-6l3,-7l3,-9l-3,-9l-2,-7l-5,-8l-10,-11l-10,-9l-10,-7l-19,-13l-20,-11l-19,-11l-20,-8l-19,-9l-20,-8l-19,-7l-20,-7l-19,-6l-20,-6l-20,-6l-19,-6l-20,-5l-19,-5l-20,-4l-19,-6l-20,-3l-19,-4l-20,-3l-20,-5l-39,-5l-39,-5l-39,-4l-39,-3h-39l-40,1l-39,4l-20,3l-20,6l-20,9l-10,8l-5,6l-2,7l-3,8Z" style="stroke: black; stroke-width: 1; fill: #dfbb88;"></path>
      </g>
      <g>
       <path d="M273,116l1,5l2,4l2,4l5,5l5,5l4,3l5,4l5,3l10,6l9,5l10,4l10,5l9,4l10,3l10,4l9,3l10,3l10,3l9,3l10,2l10,3l9,2l10,3l19,3l10,2l10,2l19,3l19,2l19,2l20,1h40l21,-2l10,-2l10,-3l11,-5l5,-4l3,-3l1,-3l1,-5l-1,-4l-1,-4l-3,-4l-4,-5l-5,-5l-5,-4l-5,-3l-5,-3l-10,-6l-9,-5l-10,-4l-10,-5l-10,-3l-9,-4l-10,-3l-10,-4l-10,-3l-9,-3l-10,-2l-10,-3l-9,-2l-10,-3l-10,-2l-19,-4l-10,-2l-10,-2l-19,-3l-20,-2l-19,-2l-20,-1l-19,-1l-20,1l-21,2l-10,2l-10,3l-10,4l-5,4l-2,3l-2,4l-1,4Z" style="stroke: black; stroke-width: 1; fill: #7d9ad2;"></path>
      </g>
     </svg>
     <g>
      <g transform="translate(0,307)">
       <path d="M0,0h941M3,-12v12m43,-6v6m43,-6v6m42,-6v6m43,-12v12m43,-6v6m42,-6v6m43,-6v6m43,-12v12m42,-6v6m43,-6v6m43,-6v6m42,-12v12m43,-6v6m43,-6v6m42,-6v6m43,-12v12m43,-6v6m42,-6v6m43,-6v6m43,-12v12m43,-6v6" style="stroke: black; stroke-width: 1;"></path>
       <g font-family="Arial" font-size="13" space="preserve" fill="black" text-anchor="middle">
        <text dy=".8em" transform="translate(3,4)">
         138
        </text>
        <text dy=".8em" transform="translate(174,4)">
         140
        </text>
        <text dy=".8em" transform="translate(345,4)">
         142
        </text>
        <text dy=".8em" transform="translate(515,4)">
         144
        </text>
        <text dy=".8em" transform="translate(686,4)">
         146
        </text>
        <text dy=".8em" transform="translate(857,4)">
         148
        </text>
       </g>
      </g>
      <g>
       <path d="M0,0v307M35,307h-35m18,-7h-18m18,-7h-18m18,-7h-18m18,-6h-18m35,-7h-35m18,-7h-18m18,-7h-18m18,-6h-18m18,-7h-18m35,-7h-35m18,-7h-18m18,-6h-18m18,-7h-18m18,-7h-18m35,-7h-35m18,-6h-18m18,-7h-18m18,-7h-18m18,-7h-18m35,-7h-35m18,-6h-18m18,-7h-18m18,-7h-18m18,-7h-18m35,-6h-35m18,-7h-18m18,-7h-18m18,-7h-18m18,-6h-18m35,-7h-35m18,-7h-18m18,-7h-18m18,-6h-18m18,-7h-18m35,-7h-35m18,-7h-18m18,-6h-18m18,-7h-18m18,-7h-18m35,-7h-35m18,-6h-18m18,-7h-18m18,-7h-18m18,-7h-18m35,-7h-35" style="stroke: black; stroke-width: 1;"></path>
       <g font-family="Arial" font-size="13" space="preserve" fill="black" text-anchor="end">
        <text dy=".4em" transform="translate(-2,307)">
         0.965
        </text>
        <text dy=".4em" transform="translate(-2,273)">
         0.970
        </text>
        <text dy=".4em" transform="translate(-2,239)">
         0.975
        </text>
        <text dy=".4em" transform="translate(-2,205)">
         0.980
        </text>
        <text dy=".4em" transform="translate(-2,171)">
         0.985
        </text>
        <text dy=".4em" transform="translate(-2,138)">
         0.990
        </text>
        <text dy=".4em" transform="translate(-2,104)">
         0.995
        </text>
        <text dy=".4em" transform="translate(-2,70)">
         1
        </text>
        <text dy=".4em" transform="translate(-2,36)">
         1.005
        </text>
        <text dy=".4em" transform="translate(-2,2)">
         1.010
        </text>
       </g>
      </g>
     </g>
    </g>
    <g transform="translate(118,2)" font-family="Arial" font-size="19" space="preserve">
     <text fill="black" text-anchor="middle" dy=".8em" transform="translate(471)">
      Graph
     </text>
    </g>
   </g>
  </svg>
 </g>
</svg>

<svg xmlns="http://www.w3.org/2000/svg" viewBox="0 0 1200 800" preserveAspectRatio="none" width="1200" height="800">
 <path d="M0,0H1200V800H0Z" style="fill: white;"></path>
 <g>
  <svg viewBox="0 0 1176 384" preserveAspectRatio="none" x="12" y="8" width="1176" height="384">
   <path d="M0,0H1176V384H0Z" style="fill: white;"></path>
   <g>
    <g transform="translate(118,38)">
     <path d="M0,0H941V307H0Z" style="fill: white; stroke: black; stroke-width: 1;"></path>
     <svg x="0" y="0" overflow="hidden" width="941" height="307" viewBox="0 0 941 307">
      <g>
       <path d="M78,160l3,14l8,15l29,26l43,22l52,17l56,12l60,9l62,5l63,1l68,-1l67,-6l64,-10l62,-14l56,-18l25,-11l22,-13l19,-13l14,-15l9,-15l3,-16l-3,-15l-8,-14l-29,-26l-42,-22l-52,-18l-57,-13l-60,-9l-62,-5l-63,-1l-68,2l-68,5l-65,10l-61,14l-56,19l-25,12l-21,12l-19,14l-14,14l-9,16l-3,16" style="stroke: black; stroke-width: 1; fill: none;"></path>
       <path d="M78,160h1m2,14h1m7,15h1m28,26h1m42,22h1m51,17h1m55,12h1m59,9h1m61,5h1m62,1h1m67,-1h1m66,-6h1m63,-10h1m61,-14h1m55,-18h1m24,-11h1m21,-13h1m18,-13h1m13,-15h1m8,-15h1m2,-16h1m-4,-15h1m-9,-14h1M823,94h1M781,72h1M729,54h1M672,41h1M612,32h1M550,27h1M487,26h1m-69,2h1m-69,5h1M286,43h1M225,57h1M169,76h1M144,88h1m-22,12h1m-20,14h1M90,128h1M81,144h1m-4,16h1" style="stroke: black; fill: none;"></path>
      </g>
     </svg>
     <g>
      <g transform="translate(0,307)">
       <path d="M0,0h941M17,-6V0M47,-6V0M77,-6V0M107,-6V0M137,-12V0M167,-6V0M197,-6V0M227,-6V0M257,-6V0M287,-12V0M317,-6V0M348,-6V0M378,-6V0M408,-6V0M438,-12V0M468,-6V0M498,-6V0M528,-6V0M558,-6V0M588,-12V0M618,-6V0M648,-6V0M678,-6V0M708,-6V0M738,-12V0M768,-6V0M799,-6V0M829,-6V0M859,-6V0M889,-12V0M919,-6V0" style="stroke: black; stroke-width: 1;"></path>
       <g font-family="Arial" font-size="13" space="preserve">
        <text fill="black" text-anchor="middle" dy=".8em" transform="translate(137,4)">
         5
        </text>
        <text fill="black" text-anchor="middle" dy=".8em" transform="translate(287,4)">
         10
        </text>
        <text fill="black" text-anchor="middle" dy=".8em" transform="translate(438,4)">
         15
        </text>
        <text fill="black" text-anchor="middle" dy=".8em" transform="translate(588,4)">
         20
        </text>
        <text fill="black" text-anchor="middle" dy=".8em" transform="translate(738,4)">
         25
        </text>
        <text fill="black" text-anchor="middle" dy=".8em" transform="translate(889,4)">
         30
        </text>
        <g transform="translate(946,-6)">
         <text fill="black" font-size="13">
          ×10
         </text>
         <text fill="black" font-size="8" transform="translate(21,-6)">
          -3
         </text>
        </g>
       </g>
      </g>
      <g>
       <path d="M0,0v307M18,298H0M18,284H0M18,271H0M35,257H0M18,244H0M18,230H0M18,217H0M18,203H0M35,190H0M18,176H0M18,163H0M18,149H0M18,136H0M35,122H0M18,109H0M18,95H0M18,82H0M18,68H0M35,54H0M18,41H0M18,27H0M18,14H0M18,0H0" style="stroke: black; stroke-width: 1;"></path>
       <g font-family="Arial" font-size="13" space="preserve" fill="black" text-anchor="end">
        <text dy=".4em" transform="translate(-2,257)">
         0.980
        </text>
        <text dy=".4em" transform="translate(-2,190)">
         0.985
        </text>
        <text dy=".4em" transform="translate(-2,122)">
         0.990
        </text>
        <text dy=".4em" transform="translate(-2,54)">
         0.995
        </text>
       </g>
      </g>
     </g>
    </g>
    <g transform="translate(118,2)" font-family="Arial" font-size="19" space="preserve">
     <text fill="black" text-anchor="middle" dy=".8em" transform="translate(471)">
      Graph
     </text>
    </g>
   </g>
  </svg>
  <svg viewBox="0 0 1176 384" preserveAspectRatio="none" x="12" y="408" width="1176" height="384">
   <path d="M0,0H1176V384H0Z" style="fill: white;"></path>
   <g>
    <g transform="translate(118,38)">
     <path d="M0,0H941V307H0Z" style="fill: white; stroke: black; stroke-width: 1;"></path>
     <svg x="0" y="0" overflow="hidden" width="941" height="307" viewBox="0 0 941 307">
      <g>
       <path d="M78,78l3,10l2,8l5,8l10,11l9,9l10,8l9,7l10,6l19,11l20,11l19,9l19,8l19,8l19,8l20,6l19,7l19,6l19,6l20,5l19,6l19,4l19,5l19,5l39,7l19,3l19,5l39,5l38,5l39,3l38,3h39l42,-1l42,-4l21,-4l21,-6l21,-9l11,-8l5,-6l3,-7l3,-9l-3,-9l-2,-7l-5,-8l-10,-11l-10,-9l-10,-7l-19,-13l-20,-11l-19,-11l-20,-8l-19,-9l-20,-8l-19,-7l-20,-7l-19,-6l-20,-6l-20,-6l-19,-6l-20,-5l-19,-5l-20,-4l-19,-6l-20,-3l-19,-4l-20,-3l-20,-5l-39,-5l-39,-5l-39,-4l-39,-3h-39l-40,1l-39,4l-20,3l-20,6l-20,9l-10,8l-5,6l-2,7l-3,8Z" style="stroke: black; stroke-width: 1; fill: #dfbb88;"></path>
      </g>
      <g>
       <path d="M273,116l1,5l2,4l2,4l5,5l5,5l4,3l5,4l5,3l10,6l9,5l10,4l10,5l9,4l10,3l10,4l9,3l10,3l10,3l9,3l10,2l10,3l9,2l10,3l19,3l10,2l10,2l19,3l19,2l19,2l20,1h40l21,-2l10,-2l10,-3l11,-5l5,-4l3,-3l1,-3l1,-5l-1,-4l-1,-4l-3,-4l-4,-5l-5,-5l-5,-4l-5,-3l-5,-3l-10,-6l-9,-5l-10,-4l-10,-5l-10,-3l-9,-4l-10,-3l-10,-4l-10,-3l-9,-3l-10,-2l-10,-3l-9,-2l-10,-3l-10,-2l-19,-4l-10,-2l-10,-2l-19,-3l-20,-2l-19,-2l-20,-1l-19,-1l-20,1l-21,2l-10,2l-10,3l-10,4l-5,4l-2,3l-2,4l-1,4Z" style="stroke: black; stroke-width: 1; fill: #7d9ad2;"></path>
      </g>
     </svg>
     <g>
      <g transform="translate(0,307)">
       <path d="M0,0h941M3,-12V0M46,-6V0M89,-6V0M131,-6V0M174,-12V0M217,-6V0M259,-6V0M302,-6V0M345,-12V0M387,-6V0M430,-6V0M473,-6V0M515,-12V0M558,-6V0M601,-6V0M643,-6V0M686,-12V0M729,-6V0M771,-6V0M814,-6V0M857,-12V0M900,-6V0" style="stroke: black; stroke-width: 1;"></path>
       <g font-family="Arial" font-size="13" space="preserve" fill="black" text-anchor="middle">
        <text dy=".8em" transform="translate(3,4)">
         138
        </text>
        <text dy=".8em" transform="translate(174,4)">
         140
        </text>
        <text dy=".8em" transform="translate(345,4)">
         142
        </text>
        <text dy=".8em" transform="translate(515,4)">
         144
        </text>
        <text dy=".8em" transform="translate(686,4)">
         146
        </text>
        <text dy=".8em" transform="translate(857,4)">
         148
        </text>
       </g>
      </g>
      <g>
       <path d="M0,0v307M35,307H0M18,300H0M18,293H0M18,286H0M18,280H0M35,273H0M18,266H0M18,259H0M18,253H0M18,246H0M35,239H0M18,232H0M18,226H0M18,219H0M18,212H0M35,205H0M18,199H0M18,192H0M18,185H0M18,178H0M35,171H0M18,165H0M18,158H0M18,151H0M18,144H0M35,138H0M18,131H0M18,124H0M18,117H0M18,111H0M35,104H0M18,97H0M18,90H0M18,84H0M18,77H0M35,70H0M18,63H0M18,57H0M18,50H0M18,43H0M35,36H0M18,30H0M18,23H0M18,16H0M18,9H0M35,2H0" style="stroke: black; stroke-width: 1;"></path>
       <g font-family="Arial" font-size="13" space="preserve" fill="black" text-anchor="end">
        <text dy=".4em" transform="translate(-2,307)">
         0.965
        </text>
        <text dy=".4em" transform="translate(-2,273)">
         0.970
        </text>
        <text dy=".4em" transform="translate(-2,239)">
         0.975
        </text>
        <text dy=".4em" transform="translate(-2,205)">
         0.980
        </text>
        <text dy=".4em" transform="translate(-2,171)">
         0.985
        </text>
        <text dy=".4em" transform="translate(-2,138)">
         0.990
        </text>
        <text dy=".4em" transform="translate(-2,104)">
         0.995
        </text>
        <text dy=".4em" transform="translate(-2,70)">
         1
        </text>
        <text dy=".4em" transform="translate(-2,36)">
         1.005
        </text>
        <text dy=".4em" transform="translate(-2,2)">
         1.010
        </text>
       </g>
      </g>
     </g>
    </g>
    <g transform="translate(118,2)" font-family="Arial" font-size="19" space="preserve">
     <text fill="black" text-anchor="middle" dy=".8em" transform="translate(471)">
      Graph
     </text>
    </g>
   </g>
  </svg>
 </g>
</svg>
